X:1
T:Title
%%score 1 { 2 | 3 }
L:1/8
Q:1/4=100
M:4/4
K:G
V:1 treble nm="Grand Piano, Soprano"
V:2 treble nm="Choir Pad, He Stood in the Midst"
V:3 bass 
V:1
 [GB]2 [GB]2 [GB]>[G_B] [G=B]2 | [Gc][Gc] [GB]4 [DG]2 | [GB]2 [FA]2 [FA]>G [FA]2 | [FB]2 G4 z2 | %4
w: By~From~Albert~Lortzing~(1801\-1851) * * * *||||
 [GB]2 [GB]2 [GB]>[G_B] [G=B]2 | [Gc][Gc] [GB]4 [DG]2 | [GB][GB] [FA]2 [FA]>[F^G] [FA]2 | %7
w: |||
 [FB]2 G4 z2 | GG [EG]2 [EG]>[EG] [^DF]2 | [^DF][DF] [EG]4 [B,E]2 | GA [GB]2 [Gc]>[GB] [FB]2 | %11
w: ||||
 [FA]2 [DG]6- | [DG]2 z2 z4 |] %13
w: ||
V:2
 D2 D2 D>^C D2 | EE D4 B,2 | D2 C2 C>B, C2 | D2 B,4 z2 | D2 D2 D>^C D2 | EE D4 B,2 | %6
 DD C2 C>B, C2 | D2 B,4 z2 | B,B, B,2 B,>B, A,2 | B,A, G,4 G,2 | B,[K:treble]C D2 E>D D2 | %11
 C2 B,6- | B,2 z2 z4 |] %13
V:3
 G,2 G,2 G,>G, G,2 | G,G, G,4 G,2 | G,2 D,2 D,>D, D,2 | D,2 G,4 z2 | G,2 G,2 G,>G, G,2 | %5
 G,G, G,4 G,2 | G,G, D,2 D,>D, D,2 | D,2 G,4 z2 | E,E, E,2 E,>E, B,,2 | B,,B,, E,4 E,2 | %10
 E,^D, =D,2 D,>D, D,2 | D,2 G,,6- | G,,2 z2 z4 |] %13

